img/logo-footer.svg

<svg width="138" height="23" viewBox="0 0 138 23" fill="none" xmlns="http://www.w3.org/2000/svg">
<path fill-rule="evenodd" clip-rule="evenodd" d="M132.694 3.39695V22.297H129.994V3.39695H125.194V1.29695H137.494V3.39695H132.694ZM122.299 14.5119C121.829 15.1019 121.239 15.5219 120.529 15.7719C119.819 16.0219 118.974 16.1469 117.994 16.1469C117.534 16.1469 117.014 16.1169 116.434 16.0569C115.854 15.9969 115.374 15.9269 114.994 15.8469V22.2969H112.294V1.59695C113.054 1.37695 113.819 1.22195 114.589 1.13195C115.359 1.04195 116.194 0.996948 117.094 0.996948C118.294 0.996948 119.314 1.12195 120.154 1.37195C120.994 1.62195 121.674 2.03695 122.194 2.61695C122.714 3.19695 123.094 3.96695 123.334 4.92695C123.574 5.88695 123.694 7.07695 123.694 8.49695C123.694 9.95695 123.579 11.1769 123.349 12.1569C123.119 13.1369 122.769 13.9219 122.299 14.5119ZM120.769 5.79694C120.619 5.07694 120.384 4.50694 120.064 4.08694C119.744 3.66694 119.339 3.37194 118.849 3.20194C118.359 3.03194 117.774 2.94694 117.094 2.94694H114.994V14.0469H117.094C117.774 14.0469 118.359 13.9619 118.849 13.7919C119.339 13.6219 119.744 13.3269 120.064 12.9069C120.384 12.4869 120.619 11.9169 120.769 11.1969C120.919 10.4769 120.994 9.57694 120.994 8.49694C120.994 7.41694 120.919 6.51694 120.769 5.79694ZM105.544 16.897H99.544L98.194 22.297H95.494L100.594 1.29695H104.494L109.594 22.297H106.894L105.544 16.897ZM102.604 4.29694H102.484L99.994 14.7969H105.094L102.604 4.29694ZM89.644 6.69695H89.494L85.144 19.597H82.444L78.094 6.69695H77.944L77.044 22.297H74.344L75.544 1.29695H78.844L83.734 15.697H83.854L88.744 1.29695H92.044L93.244 22.297H90.544L89.644 6.69695ZM69.484 20.3469C68.924 21.1669 68.249 21.7469 67.459 22.0869C66.669 22.4269 65.764 22.5969 64.744 22.5969C63.724 22.5969 62.819 22.4269 62.029 22.0869C61.239 21.7469 60.564 21.1669 60.004 20.3469C59.444 19.5269 59.019 18.4219 58.729 17.0319C58.439 15.6419 58.294 13.8969 58.294 11.7969C58.294 9.69695 58.439 7.95195 58.729 6.56195C59.019 5.17195 59.444 4.06695 60.004 3.24695C60.564 2.42695 61.239 1.84695 62.029 1.50695C62.819 1.16695 63.724 0.996948 64.744 0.996948C65.764 0.996948 66.669 1.16695 67.459 1.50695C68.249 1.84695 68.924 2.42695 69.484 3.24695C70.044 4.06695 70.469 5.17195 70.759 6.56195C71.049 7.95195 71.194 9.69695 71.194 11.7969C71.194 13.8969 71.049 15.6419 70.759 17.0319C70.469 18.4219 70.044 19.5269 69.484 20.3469ZM68.179 7.35695C67.969 6.19695 67.694 5.27695 67.354 4.59695C67.014 3.91695 66.614 3.44695 66.154 3.18695C65.694 2.92695 65.224 2.79695 64.744 2.79695C64.264 2.79695 63.794 2.92695 63.334 3.18695C62.874 3.44695 62.474 3.91695 62.134 4.59695C61.794 5.27695 61.519 6.19695 61.309 7.35695C61.099 8.51695 60.994 9.99695 60.994 11.7969C60.994 13.5969 61.099 15.0769 61.309 16.2369C61.519 17.3969 61.794 18.3169 62.134 18.9969C62.474 19.6769 62.874 20.1469 63.334 20.4069C63.794 20.6669 64.264 20.7969 64.744 20.7969C65.224 20.7969 65.694 20.6669 66.154 20.4069C66.614 20.1469 67.014 19.6769 67.354 18.9969C67.694 18.3169 67.969 17.3969 68.179 16.2369C68.389 15.0769 68.494 13.5969 68.494 11.7969C68.494 9.99695 68.389 8.51695 68.179 7.35695ZM51.994 12.697H45.694V22.297H42.994V1.29695H45.694V10.597H51.994V1.29695H54.694V22.297H51.994V12.697ZM37.745 22.297L33.995 13.297L30.245 22.297H27.545L32.045 11.497L27.995 1.29695H30.695L33.995 9.69695L37.295 1.29695H39.995L35.945 11.497L40.445 22.297H37.745ZM15.695 1.29695H25.895V3.39695H18.395V10.297H24.995V12.397H18.395V20.197H25.895V22.297H15.695V1.29695ZM8.495 22.297H5.795V3.39695H0.994999V1.29695H13.295V3.39695H8.495V22.297Z" fill="white"/>
</svg>

<svg width="138" height="23" fill="none" xmlns="http://www.w3.org/2000/svg"><path fill-rule="evenodd" clip-rule="evenodd" d="M132.694 3.397v18.9h-2.7v-18.9h-4.8v-2.1h12.3v2.1h-4.8zm-10.395 11.115c-.47.59-1.06 1.01-1.77 1.26s-1.555.375-2.535.375c-.46 0-.98-.03-1.56-.09-.58-.06-1.06-.13-1.44-.21v6.45h-2.7v-20.7c.76-.22 1.525-.375 2.295-.465.77-.09 1.605-.135 2.505-.135 1.2 0 2.22.125 3.06.375.84.25 1.52.665 2.04 1.245.52.58.9 1.35 1.14 2.31.24.96.36 2.15.36 3.57 0 1.46-.115 2.68-.345 3.66-.23.98-.58 1.765-1.05 2.355zm-1.53-8.715c-.15-.72-.385-1.29-.705-1.71a2.55 2.55 0 00-1.215-.885c-.49-.17-1.075-.255-1.755-.255h-2.1v11.1h2.1c.68 0 1.265-.085 1.755-.255a2.55 2.55 0 001.215-.885c.32-.42.555-.99.705-1.71.15-.72.225-1.62.225-2.7s-.075-1.98-.225-2.7zm-15.225 11.1h-6l-1.35 5.4h-2.7l5.1-21h3.9l5.1 21h-2.7l-1.35-5.4zm-2.94-12.6h-.12l-2.49 10.5h5.1l-2.49-10.5zm-12.96 2.4h-.15l-4.35 12.9h-2.7l-4.35-12.9h-.15l-.9 15.6h-2.7l1.2-21h3.3l4.89 14.4h.12l4.89-14.4h3.3l1.2 21h-2.7l-.9-15.6zm-20.16 13.65c-.56.82-1.235 1.4-2.025 1.74-.79.34-1.695.51-2.715.51-1.02 0-1.925-.17-2.715-.51-.79-.34-1.465-.92-2.025-1.74-.56-.82-.985-1.925-1.275-3.315-.29-1.39-.435-3.135-.435-5.235 0-2.1.145-3.845.435-5.235.29-1.39.715-2.495 1.275-3.315.56-.82 1.235-1.4 2.025-1.74.79-.34 1.695-.51 2.715-.51 1.02 0 1.925.17 2.715.51.79.34 1.465.92 2.025 1.74.56.82.985 1.925 1.275 3.315.29 1.39.435 3.135.435 5.235 0 2.1-.145 3.845-.435 5.235-.29 1.39-.715 2.495-1.275 3.315zm-1.305-12.99c-.21-1.16-.485-2.08-.825-2.76-.34-.68-.74-1.15-1.2-1.41-.46-.26-.93-.39-1.41-.39-.48 0-.95.13-1.41.39-.46.26-.86.73-1.2 1.41-.34.68-.615 1.6-.825 2.76-.21 1.16-.315 2.64-.315 4.44 0 1.8.105 3.28.315 4.44.21 1.16.485 2.08.825 2.76.34.68.74 1.15 1.2 1.41.46.26.93.39 1.41.39.48 0 .95-.13 1.41-.39.46-.26.86-.73 1.2-1.41.34-.68.615-1.6.825-2.76.21-1.16.315-2.64.315-4.44 0-1.8-.105-3.28-.315-4.44zm-16.185 5.34h-6.3v9.6h-2.7v-21h2.7v9.3h6.3v-9.3h2.7v21h-2.7v-9.6zm-14.249 9.6l-3.75-9-3.75 9h-2.7l4.5-10.8-4.05-10.2h2.7l3.3 8.4 3.3-8.4h2.7l-4.05 10.2 4.5 10.8h-2.7zm-22.05-21h10.2v2.1h-7.5v6.9h6.6v2.1h-6.6v7.8h7.5v2.1h-10.2v-21zm-7.2 21h-2.7v-18.9h-4.8v-2.1h12.3v2.1h-4.8v18.9z" fill="#fff"/></svg>
